X: 12927
T: Fiddler On The Ceiling
R: jig
M: 6/8
K: Gmajor
|:G2G GAB|cde d3|dBG GAB|A2GF2D|
G2G GAB|cde D3|dBG GAB|A2G G3:|
|:c2e e2c|B2d d2B|ABc BAG|F2D DEF|
G2G GAB|cde d3|dBG GAB|A2G G3:|

